svg/color/et.svg

<?xml version="1.0" encoding="UTF-8" ?>
<!DOCTYPE svg PUBLIC "-//W3C//DTD SVG 1.1//EN" "http://www.w3.org/Graphics/SVG/1.1/DTD/svg11.dtd">
<svg width="250pt" height="250pt" viewBox="0 0 250 250" version="1.1" xmlns="http://www.w3.org/2000/svg">
<g id="#ffffffff">
<path fill="#ffffff" opacity="1.00" d=" M 0.00 0.00 L 74.14 0.00 C 70.00 1.51 65.75 2.67 61.52 3.87 C 41.73 10.07 24.12 23.31 13.25 41.03 C 9.84 46.58 7.03 52.49 4.76 58.59 C 2.97 63.95 1.88 69.52 0.00 74.87 L 0.00 0.00 Z" />
<path fill="#ffffff" opacity="1.00" d=" M 175.12 0.00 L 250.00 0.00 L 250.00 74.16 C 247.25 66.68 245.91 58.71 242.30 51.55 C 233.62 31.92 217.43 15.78 197.68 7.35 C 190.54 3.79 182.61 2.56 175.12 0.00 Z" />
<path fill="#ffffff" opacity="1.00" d=" M 0.00 174.99 C 2.70 183.50 4.42 192.36 8.58 200.35 C 17.42 219.13 33.21 234.51 52.33 242.65 C 59.46 246.20 67.39 247.44 74.88 250.00 L 0.00 250.00 L 0.00 174.99 Z" />
<path fill="#ffffff" opacity="1.00" d=" M 242.64 197.52 C 246.01 190.38 247.45 182.58 250.00 175.15 L 250.00 250.00 L 175.85 250.00 C 182.86 247.40 190.32 246.10 197.13 242.92 C 217.28 234.24 234.23 217.90 242.64 197.52 Z" />
</g>
<g id="#20bfa9ff">
<path fill="#20bfa9" opacity="1.00" d=" M 74.14 0.00 L 175.12 0.00 C 182.61 2.56 190.54 3.79 197.68 7.35 C 217.43 15.78 233.62 31.92 242.30 51.55 C 245.91 58.71 247.25 66.68 250.00 74.16 L 250.00 175.15 C 247.45 182.58 246.01 190.38 242.64 197.52 C 234.23 217.90 217.28 234.24 197.13 242.92 C 190.32 246.10 182.86 247.40 175.85 250.00 L 74.88 250.00 C 67.39 247.44 59.46 246.20 52.33 242.65 C 33.21 234.51 17.42 219.13 8.58 200.35 C 4.42 192.36 2.70 183.50 0.00 174.99 L 0.00 74.87 C 1.88 69.52 2.97 63.95 4.76 58.59 C 7.03 52.49 9.84 46.58 13.25 41.03 C 24.12 23.31 41.73 10.07 61.52 3.87 C 65.75 2.67 70.00 1.51 74.14 0.00 M 99.07 59.01 C 84.16 63.07 71.30 72.80 61.83 84.84 C 57.36 90.85 54.20 97.75 51.94 104.87 C 49.90 111.05 50.18 117.66 50.34 124.07 C 50.34 129.42 52.42 134.44 54.45 139.29 C 62.93 158.77 78.16 174.95 96.48 185.56 C 102.91 189.28 109.49 193.25 117.01 194.19 C 121.99 194.70 127.19 195.97 132.10 194.38 C 149.64 190.79 165.02 180.05 177.08 167.08 C 186.10 158.53 192.66 147.69 197.02 136.11 C 201.75 122.87 200.36 107.89 194.56 95.20 C 181.93 69.85 153.23 53.81 125.08 55.31 C 116.27 55.05 107.43 56.18 99.07 59.01 Z" />
<path fill="#20bfa9" opacity="1.00" d=" M 162.47 112.79 C 165.92 112.18 169.96 111.80 172.95 114.04 C 176.05 116.27 178.49 119.49 179.44 123.22 C 182.41 133.88 177.89 145.68 169.77 152.85 C 165.21 156.90 157.76 158.30 152.71 154.36 C 147.76 151.00 146.19 144.67 146.44 139.00 C 146.10 128.25 152.34 116.95 162.47 112.79 Z" />
<path fill="#20bfa9" opacity="1.00" d=" M 80.37 113.35 C 85.23 111.28 91.06 112.64 94.98 116.03 C 100.87 120.97 105.44 128.10 105.68 135.97 C 106.14 141.73 105.52 148.03 101.54 152.55 C 99.14 155.82 94.87 156.99 90.98 156.55 C 85.92 156.39 82.11 152.61 78.94 149.09 C 74.18 143.96 72.50 136.76 72.00 129.97 C 71.83 123.62 74.27 116.25 80.37 113.35 Z" />
</g>
<g id="#424242ff">
<path fill="#424242" opacity="1.00" d=" M 99.07 59.01 C 107.43 56.18 116.27 55.05 125.08 55.31 C 125.08 101.59 124.97 147.88 125.12 194.17 C 127.44 194.33 129.77 194.41 132.10 194.38 C 127.19 195.97 121.99 194.70 117.01 194.19 C 109.49 193.25 102.91 189.28 96.48 185.56 C 78.16 174.95 62.93 158.77 54.45 139.29 C 52.42 134.44 50.34 129.42 50.34 124.07 C 50.18 117.66 49.90 111.05 51.94 104.87 C 54.20 97.75 57.36 90.85 61.83 84.84 C 71.30 72.80 84.16 63.07 99.07 59.01 M 80.37 113.35 C 74.27 116.25 71.83 123.62 72.00 129.97 C 72.50 136.76 74.18 143.96 78.94 149.09 C 82.11 152.61 85.92 156.39 90.98 156.55 C 94.87 156.99 99.14 155.82 101.54 152.55 C 105.52 148.03 106.14 141.73 105.68 135.97 C 105.44 128.10 100.87 120.97 94.98 116.03 C 91.06 112.64 85.23 111.28 80.37 113.35 Z" />
</g>
<g id="#000000ff">
<path fill="#000000" opacity="1.00" d=" M 125.08 55.31 C 153.23 53.81 181.93 69.85 194.56 95.20 C 200.36 107.89 201.75 122.87 197.02 136.11 C 192.66 147.69 186.10 158.53 177.08 167.08 C 165.02 180.05 149.64 190.79 132.10 194.38 C 129.77 194.41 127.44 194.33 125.12 194.17 C 124.97 147.88 125.08 101.59 125.08 55.31 M 162.47 112.79 C 152.34 116.95 146.10 128.25 146.44 139.00 C 146.19 144.67 147.76 151.00 152.71 154.36 C 157.76 158.30 165.21 156.90 169.77 152.85 C 177.89 145.68 182.41 133.88 179.44 123.22 C 178.49 119.49 176.05 116.27 172.95 114.04 C 169.96 111.80 165.92 112.18 162.47 112.79 Z" />
</g>
</svg>

<?xml version="1.0" encoding="utf-8"?>
<!-- Generator: Adobe Illustrator 26.0.3, SVG Export Plug-In . SVG Version: 6.00 Build 0)  -->
<svg version="1.1" id="Layer_1" xmlns="http://www.w3.org/2000/svg" xmlns:xlink="http://www.w3.org/1999/xlink" x="0px" y="0px"
	 viewBox="0 0 250 250" style="enable-background:new 0 0 250 250;" xml:space="preserve">
<style type="text/css">
	.st0{fill:#20BFA9;}
	.st1{fill:#424242;}
</style>
<g id="_x23_20bfa9ff">
	<path class="st0" d="M74.1,0h101c7.5,2.6,15.4,3.8,22.6,7.3c19.8,8.4,35.9,24.6,44.6,44.2c3.6,7.2,4.9,15.1,7.7,22.6v101
		c-2.6,7.4-4,15.2-7.4,22.4c-8.4,20.4-25.4,36.7-45.5,45.4c-6.8,3.2-14.3,4.5-21.3,7.1h-101c-7.5-2.6-15.4-3.8-22.5-7.4
		c-19.1-8.1-34.9-23.5-43.8-42.3c-4.2-8-5.9-16.9-8.6-25.4V74.9C1.9,69.5,3,64,4.8,58.6c2.3-6.1,5.1-12,8.5-17.6
		c10.9-17.7,28.5-31,48.3-37.2C65.8,2.7,70,1.5,74.1,0 M99.1,59c-14.9,4.1-27.8,13.8-37.2,25.8c-4.5,6-7.6,12.9-9.9,20
		c-2,6.2-1.8,12.8-1.6,19.2c0,5.3,2.1,10.4,4.1,15.2c8.5,19.5,23.7,35.7,42,46.3c6.4,3.7,13,7.7,20.5,8.6c5,0.5,10.2,1.8,15.1,0.2
		c17.5-3.6,32.9-14.3,45-27.3c9-8.6,15.6-19.4,19.9-31c4.7-13.2,3.3-28.2-2.5-40.9c-12.6-25.3-41.3-41.4-69.5-39.9
		C116.3,55,107.4,56.2,99.1,59z"/>
	<path class="st0" d="M162.5,112.8c3.4-0.6,7.5-1,10.5,1.2c3.1,2.2,5.5,5.4,6.5,9.2c3,10.7-1.6,22.5-9.7,29.6
		c-4.6,4-12,5.4-17.1,1.5c-5-3.4-6.5-9.7-6.3-15.4C146.1,128.2,152.3,116.9,162.5,112.8z"/>
	<path class="st0" d="M80.4,113.3c4.9-2.1,10.7-0.7,14.6,2.7c5.9,4.9,10.5,12.1,10.7,19.9c0.5,5.8-0.2,12.1-4.1,16.6
		c-2.4,3.3-6.7,4.4-10.6,4c-5.1-0.2-8.9-3.9-12-7.5c-4.8-5.1-6.4-12.3-6.9-19.1C71.8,123.6,74.3,116.2,80.4,113.3z"/>
</g>
<g id="_x23_424242ff">
	<path class="st1" d="M99.1,59c8.4-2.8,17.2-4,26-3.7c0,46.3-0.1,92.6,0,138.9c2.3,0.2,4.7,0.2,7,0.2c-4.9,1.6-10.1,0.3-15.1-0.2
		c-7.5-0.9-14.1-4.9-20.5-8.6c-18.3-10.6-33.6-26.8-42-46.3c-2-4.8-4.1-9.9-4.1-15.2c-0.2-6.4-0.4-13,1.6-19.2
		c2.3-7.1,5.4-14,9.9-20C71.3,72.8,84.2,63.1,99.1,59 M80.4,113.3c-6.1,2.9-8.5,10.3-8.4,16.6c0.5,6.8,2.2,14,6.9,19.1
		c3.2,3.5,7,7.3,12,7.5c3.9,0.4,8.2-0.7,10.6-4c4-4.5,4.6-10.8,4.1-16.6c-0.2-7.9-4.8-15-10.7-19.9
		C91.1,112.6,85.2,111.3,80.4,113.3z"/>
</g>
<g id="_x23_000000ff">
	<path d="M125.1,55.3c28.1-1.5,56.8,14.5,69.5,39.9c5.8,12.7,7.2,27.7,2.5,40.9c-4.4,11.6-10.9,22.4-19.9,31
		c-12.1,13-27.4,23.7-45,27.3c-2.3,0-4.7-0.1-7-0.2C125,147.9,125.1,101.6,125.1,55.3 M162.5,112.8c-10.1,4.2-16.4,15.5-16,26.2
		c-0.2,5.7,1.3,12,6.3,15.4c5,3.9,12.5,2.5,17.1-1.5c8.1-7.2,12.6-19,9.7-29.6c-0.9-3.7-3.4-7-6.5-9.2
		C170,111.8,165.9,112.2,162.5,112.8z"/>
</g>
</svg>
